layouts/icon-pack/potion_poison.svg

<?xml version="1.0" encoding="UTF-8"?>
<svg width="1200pt" height="1200pt" version="1.1" viewBox="0 0 1200 1200" xmlns="http://www.w3.org/2000/svg">
 <g fill="#fff">
  <path d="m545.84 150h108.33c5.3633 0.003906 10.59-1.6875 14.934-4.8359 4.3398-3.1523 7.5703-7.5938 9.2305-12.695l14.859-45.75c1.5508-4.8008 0.71484-10.051-2.2539-14.129-2.9648-4.0781-7.7031-6.4922-12.746-6.4961h-156.38c-5.043 0.003906-9.7812 2.418-12.746 6.4961-2.9688 4.0781-3.8047 9.3281-2.2539 14.129l14.859 45.68c1.6484 5.1133 4.875 9.5742 9.2148 12.734 4.3438 3.1641 9.5781 4.8672 14.949 4.8672z"/>
  <path d="m673.99 713.44c-6.7422-1.875-13.891-1.6914-20.531 0.51953-6.6367 2.2148-12.465 6.3594-16.734 11.902-6.3906 8.1016-10.621 17.688-12.305 27.867-0.64062 4.5039-0.33594 9.0938 0.89062 13.477 3.5625 13.789 11.188 26.184 21.891 35.578 5.1016 4.3672 11.359 7.1602 18.016 8.0391 6.6562 0.87891 13.426-0.19922 19.484-3.0938 12.164-5.9062 26.391-17.367 29.883-39.188 4.9453-31.008-16.43-48.352-40.594-55.102z"/>
  <path d="m615.56 809.74c-4.2539-3.207-10.113-3.207-14.367 0-9.0703 6.8203-22.992 19.688-18.328 31.617 6.7266 17.32 25.5 14.906 25.5 14.906s18.75 2.3438 25.523-14.906c4.6641-11.93-9.2578-24.797-18.328-31.617z"/>
  <path d="m592.34 753.73c-1.6914-10.18-5.9297-19.77-12.328-27.867-4.2539-5.5586-10.074-9.7109-16.715-11.926s-13.789-2.3867-20.527-0.49609c-24.164 6.75-45.539 24.094-40.57 55.102 3.5156 21.82 17.742 33.281 29.906 39.188 6.0547 2.9023 12.828 3.9805 19.484 3.1016 6.6602-0.87891 12.918-3.6719 18.016-8.0469 10.715-9.3867 18.352-21.785 21.914-35.578 1.2031-4.3867 1.4844-8.9766 0.82031-13.477z"/>
  <path d="m690.84 379.69c-10.363-2.5039-19.859-7.7578-27.488-15.207-7.625-7.4492-13.102-16.82-15.848-27.121-2.707-9.9297-4.0938-20.176-4.125-30.469 0-3.5859 0.14063-7.0312 0.42188-10.219 0.62109-7.4844 4.0312-14.461 9.5508-19.551 5.5234-5.0938 12.754-7.9258 20.262-7.9414h28.125c20.062 0 37.242-15.68 37.617-35.719 0.16797-9.7383-3.5664-19.137-10.375-26.098-6.8086-6.9609-16.121-10.91-25.859-10.957h-204.91c-20.062 0-37.242 15.703-37.5 35.742-0.18359 9.7695 3.5703 19.203 10.418 26.18 6.8438 6.9727 16.207 10.898 25.98 10.898h29.391c7.5078 0.015626 14.738 2.8477 20.262 7.9414 5.5195 5.0898 8.9297 12.066 9.5508 19.551 0.28125 3.2344 0.42188 6.6328 0.42188 10.219-0.03125 10.293-1.4258 20.539-4.1484 30.469-2.7617 10.301-8.2539 19.664-15.891 27.105-7.6406 7.4414-17.145 12.684-27.516 15.176-169.1 40.641-295.64 192.42-298.59 372.21-1.0234 56.988 10.504 113.5 33.77 165.54 23.27 52.035 57.699 98.309 100.86 135.54 6.3945 5.543 10.062 13.594 10.055 22.055v35.508c0 6.2148 2.4688 12.176 6.8633 16.574 4.3984 4.3945 10.359 6.8633 16.574 6.8633h442.62c6.2148 0 12.176-2.4688 16.574-6.8633 4.3945-4.3984 6.8633-10.359 6.8633-16.574v-35.508c0-8.4648 3.6797-16.512 10.078-22.055 72.59-62.797 119.43-150.19 131.54-245.41 12.113-95.215-11.363-191.55-65.918-270.52-54.555-78.973-136.35-135.02-229.69-157.39zm48.117 228 20.484-16.664c2.8203-2.3398 3.25-6.5117 0.96094-9.375v-0.11719c-7.9141-9.7109-10.293-22.801-6.3047-34.676 3.9883-11.871 13.789-20.871 25.961-23.836 12.168-2.9609 25.008 0.52344 34.008 9.2344 9.0039 8.7109 12.906 21.43 10.344 33.691-0.89453 4.4375 1.3086 8.918 5.3672 10.922 3.5312 1.7539 6.6641 4.2109 9.2109 7.2188 4.9883 6.0078 7.4414 13.719 6.8359 21.504-0.60156 7.7852-4.2148 15.027-10.07 20.191-6.0781 5.2461-14.02 7.8047-22.016 7.1016-7.9961-0.70703-15.367-4.6211-20.43-10.852l-0.21094-0.25781c-2.2656-2.7969-6.3672-3.2266-9.1641-0.96094l-19.289 15.703c-4.1719 3.3828-10.266 2.8984-13.852-1.1016-3.8906-4.2812-7.9688-8.4062-12.234-12.375-2.1953-1.9805-3.4141-4.8242-3.3398-7.7773 0.078125-2.957 1.4414-5.7344 3.7383-7.5977zm-384.84-40.031c7.6875-10.383 20.297-15.91 33.141-14.531 4.5039 0.41406 8.7266-2.2344 10.312-6.4688 1.3867-3.6914 3.5078-7.0664 6.2344-9.9141 5.4531-5.6094 12.883-8.8633 20.699-9.0742 7.8203-0.21094 15.414 2.6406 21.16 7.9492 5.8359 5.5039 9.1953 13.137 9.3164 21.16 0.11719 8.0195-3.0156 15.75-8.6836 21.426l-0.25781 0.25781c-2.5312 2.5508-2.5312 6.6602 0 9.2109l17.578 17.578c3.8047 3.7969 3.9609 9.9141 0.35156 13.898-3.8906 4.3125-7.5781 8.7891-11.062 13.43-1.75 2.3672-4.4453 3.8594-7.3828 4.0859-2.9375 0.22266-5.8281-0.83984-7.9219-2.9141l-18.75-18.75c-1.2539-1.2656-2.9648-1.9805-4.7461-1.9805s-3.4922 0.71484-4.7461 1.9805h-0.11719c-8.7539 8.7656-21.359 12.488-33.473 9.8906-12.109-2.6016-22.078-11.168-26.469-22.75-4.3906-11.586-2.6016-24.605 4.7461-34.578zm104.11 340.22-17.602 14.344c-2.8203 2.3398-3.25 6.5117-0.96094 9.375v0.11719c7.9141 9.707 10.297 22.797 6.3125 34.668-3.9844 11.875-13.781 20.875-25.949 23.844-12.168 2.9688-25.008-0.51172-34.016-9.2188-9.0039-8.707-12.914-21.422-10.355-33.684 0.90234-4.4375-1.3047-8.9258-5.3672-10.922-3.543-1.7773-6.6914-4.2461-9.2578-7.2656-5.0078-6.0156-7.4688-13.75-6.8594-21.555 0.60547-7.8086 4.2383-15.066 10.117-20.234 6.082-5.2109 14.012-7.7461 21.988-7.0312 7.9766 0.71484 15.328 4.6172 20.387 10.828l0.21094 0.25781c1.0859 1.3477 2.6602 2.207 4.3828 2.3867 1.7188 0.18359 3.4414-0.33203 4.7812-1.4258l17.016-13.828c4.1641-3.4023 10.262-2.9492 13.875 1.0312 3.5859 3.9609 8.1562 8.9531 12.305 13.453 1.9375 2.0508 2.9336 4.8203 2.7422 7.6367-0.19141 2.8203-1.5508 5.4258-3.75 7.1992zm231.02-34.594-7.6875 49.617c-1.8516 11.93-10.688 21.094-21.633 22.336-1.8906 0.21484-3.7852-0.39062-5.1992-1.6641-1.4141-1.2695-2.2188-3.0898-2.207-4.9922v-41.25c0-3.8945-1.6484-7.6055-4.5312-10.219-2.8828-2.6172-6.7344-3.8906-10.609-3.5156-7.1953 0.89844-12.562 7.0703-12.445 14.32v44.273c0.015625 3.2266-2.543 5.875-5.7656 5.9766-7.1406 0.17188-14.289 0.17188-21.445 0-3.2266-0.10156-5.7891-2.7461-5.7891-5.9766v-44.859c0-3.8945-1.6484-7.6055-4.5312-10.219-2.8828-2.6172-6.7344-3.8906-10.609-3.5156-7.1953 0.89844-12.562 7.0703-12.445 14.32v40.641c0.011719 1.8984-0.78906 3.7109-2.1992 4.9844-1.4102 1.2695-3.2969 1.8789-5.1836 1.6719-10.945-1.2891-19.781-10.406-21.633-22.336l-7.6875-49.617c-35.879-23.391-59.867-61.176-65.777-103.59-5.9102-42.422 6.8398-85.324 34.957-117.63 28.117-32.309 68.848-50.855 111.68-50.855 42.832 0 83.562 18.547 111.68 50.855 28.117 32.305 40.867 75.207 34.957 117.63-5.9102 42.418-29.898 80.203-65.777 103.59zm156.63 72.352c-7.6719 10.402-20.285 15.961-33.141 14.602-4.5-0.41797-8.7188 2.2344-10.289 6.4688-3.1836 8.3867-9.9883 14.883-18.512 17.68-8.5234 2.793-17.852 1.5859-25.383-3.2891-7.5312-4.8711-12.457-12.887-13.398-21.809s2.1953-17.789 8.543-24.129l0.25781-0.23438c2.5312-2.5586 2.5312-6.6758 0-9.2344l-15.516-15.492c-3.8047-3.8047-3.9688-9.918-0.375-13.922 3.5625-3.9609 8.0625-9.0234 12.117-13.594 1.8398-2.1094 4.4766-3.3633 7.2773-3.457 2.7969-0.09375 5.5117 0.98047 7.4883 2.9648l16.125 16.102c1.2578 1.2617 2.9648 1.9688 4.7461 1.9688s3.4883-0.70703 4.7461-1.9688l0.11719-0.11719c8.75-8.8047 21.375-12.559 33.512-9.9609 12.141 2.5938 22.125 11.184 26.512 22.793 4.3828 11.613 2.5664 24.66-4.8281 34.629z"/>
 </g>
</svg>

<?xml version="1.0" encoding="UTF-8" standalone="no"?>
<!DOCTYPE svg PUBLIC "-//W3C//DTD SVG 1.1//EN" "http://www.w3.org/Graphics/SVG/1.1/DTD/svg11.dtd">
<svg width="100%" height="100%" viewBox="0 0 374 512" version="1.1" xmlns="http://www.w3.org/2000/svg" xmlns:xlink="http://www.w3.org/1999/xlink" xml:space="preserve" xmlns:serif="http://www.serif.com/" style="fill-rule:evenodd;clip-rule:evenodd;stroke-linejoin:round;stroke-miterlimit:2;">
    <g transform="matrix(1,0,0,1,-210.527,-66.094)">
        <g transform="matrix(0.479452,0,0,0.479452,109.59,34.4051)">
            <path d="M545.84,150L654.17,150C659.533,150.004 664.76,148.313 669.104,145.164C673.444,142.012 676.674,137.57 678.335,132.469L693.194,86.719C694.744,81.918 693.908,76.668 690.94,72.59C687.975,68.512 683.237,66.098 678.194,66.094L521.814,66.094C516.771,66.098 512.032,68.512 509.068,72.59C506.099,76.668 505.263,81.918 506.814,86.719L521.673,132.399C523.321,137.512 526.548,141.973 530.888,145.133C535.231,148.297 540.466,150 545.837,150L545.84,150Z" style="fill:white;fill-rule:nonzero;"/>
            <path d="M673.99,713.44C667.248,711.565 660.099,711.749 653.459,713.96C646.822,716.174 640.994,720.319 636.725,725.862C630.334,733.963 626.104,743.55 624.42,753.729C623.779,758.232 624.084,762.822 625.311,767.206C628.873,780.995 636.499,793.39 647.202,802.784C652.303,807.151 658.561,809.944 665.218,810.823C671.874,811.702 678.644,810.623 684.702,807.729C696.866,801.823 711.093,790.362 714.585,768.541C719.53,737.533 698.155,720.189 673.991,713.439L673.99,713.44Z" style="fill:white;fill-rule:nonzero;"/>
            <path d="M615.56,809.74C611.306,806.533 605.447,806.533 601.193,809.74C592.123,816.56 578.201,829.428 582.865,841.357C589.592,858.677 608.365,856.263 608.365,856.263C608.365,856.263 627.115,858.607 633.888,841.357C638.552,829.427 624.63,816.56 615.56,809.74Z" style="fill:white;fill-rule:nonzero;"/>
            <path d="M592.34,753.73C590.649,743.55 586.41,733.96 580.012,725.863C575.758,720.304 569.938,716.152 563.297,713.937C556.656,711.722 549.508,711.55 542.77,713.441C518.606,720.191 497.231,737.535 502.2,768.543C505.716,790.363 519.942,801.824 532.106,807.731C538.161,810.633 544.934,811.711 551.59,810.833C558.25,809.954 564.508,807.161 569.606,802.786C580.321,793.399 587.958,781.001 591.52,767.208C592.723,762.821 593.004,758.231 592.34,753.731L592.34,753.73Z" style="fill:white;fill-rule:nonzero;"/>
            <path d="M690.84,379.69C680.477,377.186 670.981,371.932 663.352,364.483C655.727,357.034 650.25,347.663 647.504,337.362C644.797,327.432 643.41,317.186 643.379,306.893C643.379,303.307 643.52,299.862 643.801,296.674C644.422,289.19 647.832,282.213 653.352,277.123C658.875,272.029 666.106,269.197 673.614,269.182L701.739,269.182C721.801,269.182 738.981,253.502 739.356,233.463C739.524,223.724 735.789,214.326 728.981,207.365C722.172,200.404 712.86,196.455 703.122,196.408L498.212,196.408C478.15,196.408 460.97,212.111 460.712,232.15C460.528,241.919 464.282,251.353 471.13,258.33C477.973,265.302 487.337,269.228 497.11,269.228L526.501,269.228C534.008,269.243 541.239,272.075 546.763,277.169C552.282,282.259 555.692,289.235 556.313,296.72C556.595,299.954 556.735,303.353 556.735,306.939C556.704,317.232 555.31,327.478 552.587,337.408C549.825,347.709 544.333,357.072 536.696,364.513C529.055,371.954 519.551,377.197 509.18,379.689C340.08,420.33 213.54,572.109 210.59,751.899C209.567,808.887 221.094,865.399 244.36,917.439C267.63,969.474 302.059,1015.75 345.22,1052.98C351.614,1058.52 355.282,1066.57 355.275,1075.03L355.275,1110.54C355.275,1116.76 357.744,1122.72 362.138,1127.12C366.537,1131.51 372.497,1133.98 378.712,1133.98L821.332,1133.98C827.547,1133.98 833.508,1131.51 837.906,1127.12C842.301,1122.72 844.77,1116.76 844.77,1110.54L844.77,1075.03C844.77,1066.57 848.449,1058.52 854.848,1052.98C927.438,990.182 974.278,902.789 986.388,807.569C998.501,712.354 975.025,616.019 920.47,537.049C865.915,458.076 784.12,402.029 690.78,379.659L690.84,379.69ZM738.957,607.69L759.441,591.026C762.261,588.686 762.691,584.514 760.402,581.651L760.402,581.534C752.488,571.823 750.109,558.733 754.097,546.858C758.086,534.987 767.886,525.987 780.058,523.022C792.226,520.061 805.066,523.545 814.066,532.256C823.07,540.967 826.972,553.686 824.41,565.947C823.516,570.385 825.719,574.865 829.777,576.869C833.309,578.623 836.442,581.08 838.988,584.088C843.977,590.096 846.43,597.807 845.824,605.592C845.223,613.377 841.609,620.619 835.754,625.783C829.676,631.029 821.734,633.588 813.738,632.885C805.742,632.178 798.371,628.264 793.308,622.033L793.097,621.775C790.832,618.978 786.73,618.548 783.933,620.814L764.644,636.517C760.472,639.9 754.378,639.415 750.792,635.415C746.902,631.134 742.823,627.009 738.558,623.04C736.363,621.06 735.144,618.216 735.218,615.263C735.297,612.306 736.66,609.529 738.957,607.665L738.957,607.69ZM354.117,567.659C361.805,557.276 374.414,551.749 387.258,553.128C391.762,553.542 395.985,550.894 397.57,546.659C398.957,542.968 401.078,539.593 403.804,536.745C409.258,531.136 416.687,527.882 424.503,527.671C432.324,527.46 439.917,530.312 445.663,535.62C451.499,541.124 454.859,548.757 454.98,556.78C455.097,564.8 451.964,572.53 446.296,578.206L446.038,578.464C443.507,581.015 443.507,585.124 446.038,587.675L463.616,605.253C467.421,609.05 467.577,615.167 463.968,619.151C460.077,623.463 456.39,627.94 452.906,632.581C451.156,634.948 448.461,636.44 445.523,636.667C442.586,636.889 439.695,635.827 437.601,633.753L418.851,615.003C417.597,613.737 415.886,613.022 414.105,613.022C412.324,613.022 410.613,613.737 409.359,615.003L409.242,615.003C400.488,623.768 387.883,627.491 375.769,624.893C363.66,622.292 353.691,613.725 349.3,602.143C344.909,590.557 346.698,577.538 354.046,567.565L354.117,567.659ZM458.227,907.879L440.625,922.223C437.805,924.563 437.375,928.735 439.664,931.598L439.664,931.715C447.578,941.422 449.961,954.512 445.977,966.383C441.992,978.258 432.196,987.258 420.028,990.227C407.86,993.196 395.02,989.715 386.012,981.008C377.008,972.301 373.098,959.586 375.657,947.324C376.559,942.887 374.352,938.399 370.289,936.402C366.746,934.625 363.598,932.156 361.032,929.137C356.024,923.121 353.563,915.387 354.172,907.582C354.778,899.773 358.41,892.516 364.289,887.348C370.371,882.137 378.301,879.602 386.277,880.317C394.254,881.031 401.605,884.934 406.664,891.145L406.875,891.402C407.961,892.75 409.535,893.609 411.258,893.789C412.977,893.973 414.699,893.457 416.039,892.363L433.055,878.535C437.219,875.133 443.317,875.586 446.93,879.567C450.516,883.527 455.086,888.52 459.235,893.02C461.173,895.07 462.169,897.84 461.977,900.656C461.786,903.477 460.427,906.082 458.227,907.855L458.227,907.879ZM689.247,873.285L681.56,922.902C679.708,934.832 670.872,943.996 659.927,945.238C658.036,945.453 656.141,944.847 654.727,943.574C653.313,942.304 652.509,940.484 652.52,938.582L652.52,897.332C652.52,893.437 650.872,889.726 647.989,887.113C645.106,884.496 641.255,883.222 637.38,883.597C630.185,884.496 624.818,890.667 624.935,897.917L624.935,942.19C624.951,945.417 622.392,948.065 619.17,948.167C612.029,948.339 604.881,948.339 597.724,948.167C594.498,948.065 591.935,945.421 591.935,942.19L591.935,897.331C591.935,893.437 590.287,889.726 587.404,887.112C584.521,884.495 580.67,883.222 576.795,883.597C569.6,884.495 564.233,890.667 564.35,897.917L564.35,938.558C564.362,940.456 563.561,942.268 562.151,943.542C560.741,944.811 558.854,945.421 556.967,945.214C546.022,943.925 537.186,934.808 535.334,922.878L527.647,873.261C491.768,849.87 467.78,812.085 461.87,769.671C455.96,727.249 468.71,684.347 496.827,652.041C524.944,619.732 565.675,601.186 608.507,601.186C651.339,601.186 692.069,619.733 720.187,652.041C748.304,684.346 761.054,727.248 755.144,769.671C749.234,812.089 725.246,849.874 689.367,873.261L689.247,873.285ZM845.877,945.637C838.205,956.039 825.592,961.598 812.736,960.239C808.236,959.821 804.017,962.473 802.447,966.708C799.263,975.095 792.459,981.591 783.935,984.388C775.412,987.181 766.083,985.974 758.552,981.099C751.021,976.228 746.095,968.212 745.154,959.29C744.213,950.368 747.349,941.501 753.697,935.161L753.955,934.926C756.486,932.368 756.486,928.251 753.955,925.692L738.439,910.2C734.634,906.395 734.47,900.282 738.064,896.278C741.626,892.317 746.126,887.255 750.181,882.684C752.021,880.575 754.657,879.321 757.458,879.227C760.255,879.133 762.97,880.207 764.946,882.192L781.071,898.294C782.329,899.555 784.036,900.263 785.818,900.263C787.599,900.263 789.306,899.555 790.564,898.294L790.681,898.177C799.431,889.372 812.056,885.618 824.193,888.216C836.334,890.809 846.318,899.4 850.705,911.009C855.088,922.622 853.271,935.669 845.877,945.638L845.877,945.637Z" style="fill:white;fill-rule:nonzero;"/>
        </g>
    </g>
</svg>
